packages/icons/src/assets/oven.svg

<svg xmlns="http://www.w3.org/2000/svg" width="24" height="24"><path fill-rule="evenodd" d="M18.742 1.513H5.258A2.254 2.254 0 0 0 3.011 3.76v14.982a2.254 2.254 0 0 0 2.247 2.247h.75v1.498h1.498v-1.498h8.988v1.498h1.499v-1.498h.749a2.254 2.254 0 0 0 2.247-2.247V3.76a2.254 2.254 0 0 0-2.247-2.247m.749 17.229a.75.75 0 0 1-.75.749H5.259a.75.75 0 0 1-.749-.75V3.762c0-.413.337-.75.75-.75h13.483c.412 0 .749.337.749.75zM15.745 7.506h-7.49a2.254 2.254 0 0 0-2.248 2.247v5.992a2.254 2.254 0 0 0 2.248 2.248h7.49a2.254 2.254 0 0 0 2.248-2.248V9.753a2.254 2.254 0 0 0-2.248-2.247m-8.24 2.247c0-.412.338-.75.75-.75h7.49c.412 0 .75.338.75.75V12h-8.99zm8.24 6.741h-7.49a.75.75 0 0 1-.75-.749v-2.247h8.99v2.247c0 .412-.338.75-.75.75M8.255 5.258a.75.75 0 1 1-1.498 0 .75.75 0 0 1 1.498 0m3.745.75a.75.75 0 1 0 0-1.499.75.75 0 0 0 0 1.498m5.243-.75a.749.749 0 1 1-1.498 0 .749.749 0 0 1 1.498 0" clip-rule="evenodd"/></svg>

<svg width="100%" height="100%" viewBox="0 0 24 24" version="1.1" xmlns="http://www.w3.org/2000/svg" xmlns:xlink="http://www.w3.org/1999/xlink" xml:space="preserve" style="fill-rule:evenodd;clip-rule:evenodd;stroke-linejoin:round;stroke-miterlimit:2;"><path d="M18.742,1.513L5.258,1.513C4.027,1.517 3.015,2.529 3.011,3.76L3.011,18.742C3.015,19.973 4.027,20.985 5.258,20.989L6.008,20.989L6.008,22.487L7.506,22.487L7.506,20.989L16.494,20.989L16.494,22.487L17.993,22.487L17.993,20.989L18.742,20.989C19.973,20.985 20.985,19.973 20.989,18.742L20.989,3.76C20.985,2.529 19.973,1.517 18.742,1.513M19.491,18.742C19.49,19.153 19.152,19.491 18.741,19.491L5.259,19.491C4.848,19.49 4.51,19.152 4.51,18.741L4.51,3.762C4.51,3.349 4.847,3.012 5.26,3.012L18.743,3.012C19.155,3.012 19.492,3.349 19.492,3.762L19.491,18.742ZM15.745,7.506L8.255,7.506C7.023,7.509 6.011,8.521 6.007,9.753L6.007,15.745C6.01,16.977 7.023,17.99 8.255,17.993L15.745,17.993C16.977,17.99 17.99,16.977 17.993,15.745L17.993,9.753C17.989,8.521 16.977,7.509 15.745,7.506M7.505,9.753C7.505,9.341 7.843,9.003 8.255,9.003L15.745,9.003C16.157,9.003 16.495,9.341 16.495,9.753L16.495,12L7.505,12L7.505,9.753ZM15.745,16.494L8.255,16.494C7.844,16.494 7.506,16.156 7.505,15.745L7.505,13.498L16.495,13.498L16.495,15.745C16.495,16.157 16.157,16.495 15.745,16.495M8.255,5.258C8.256,5.271 8.256,5.284 8.256,5.297C8.256,5.708 7.917,6.047 7.506,6.047C7.095,6.047 6.756,5.708 6.756,5.297C6.756,5.284 6.756,5.271 6.757,5.258C6.777,4.862 7.109,4.547 7.506,4.547C7.903,4.547 8.235,4.862 8.255,5.258M12,6.008C12.009,6.008 12.018,6.009 12.027,6.009C12.439,6.009 12.777,5.67 12.777,5.259C12.777,4.847 12.439,4.509 12.027,4.509C12.018,4.509 12.009,4.509 12,4.509C11.604,4.529 11.289,4.861 11.289,5.258C11.289,5.655 11.604,5.987 12,6.007M17.243,5.257C17.243,5.668 16.905,6.006 16.494,6.006C16.083,6.006 15.745,5.668 15.745,5.257C15.745,4.846 16.083,4.508 16.494,4.508C16.905,4.508 17.243,4.846 17.243,5.257"/></svg>
